X: 10806
T: Dragon's Teeth
R: reel
M: 4/4
K: Dminor
a3 g f2 fe|fe d2 d2 ef|gf e2 e2 gf|e2 ef g2 fe|
a3 g f2 fe|fe d2 d2 ag|fe d2 e2 a2|d4 d4:|
e3 g c3 d|e3 f g2 fe|f3 a d3 f|a4 g4|
a3 g f2 fe|fe d2 d2 ag|fe g2 e2 a2|d4 d4:|

